X:1
T:Miss Admiral Gordon's Strathspey
T:Miss Admiral Gordon's Strathspey
T:William Marshall
C:William Marshall
L:1/8
Q:1/8=128
M:4/4
K:A
V:1 treble 
V:1
|: E | A/A/A A<A A>E A<f | e<c B>A F2 F>E | A/A/A AA A>E A>f | e>f a<c e2 e>f | e>f a<c e<c B>A | %6
 B>c d/c/B/A/ F2 F>E | A/A/A AA A>E A<f | e<c B>c A2 AE | C>E A>E F>E A>E | B>c d/c/B/A/ F2 FE | %11
 C>E A>E F>E A>E | c>d e/f/g/a/ e2 e>g | a>g f>e f>e d>c | B>c d/c/B/A/ F2 FE | A/A/A AA A>E A<f | %16
 e<c B>c A2 A :| %17

